X:1
T:Cor mio deh II
T:Cor mio deh II
T:Claudio Saracini
T:Source : Le secondo Musische per cantar e sonar---Venetia---A.Vincenti---1620. Editor : André Vierendeels (28/11/15).
T:Notes : Original clefs : C1, F4 Editorial accidentals above the staff Figures above the BC are notated in original print
C:Claudio Saracini
%%score 1 2
L:1/8
Q:1/4=80
M:4/4
K:F
V:1 treble nm="Soprano" snm="S"
V:2 bass nm="BC" snm="BC"
V:1
 A8 | A8 | c6 _EE | _E4 =E4 | E8 | z2 d4 ^FF | ^F4 F4 | z2 B2 BBBB | B8 | =B4 z DDD | D8 | C8 | %12
w: Cor|mio|deh non lan-|gui- *|re,|deh non lan-|gui- re|che fai te- co lan-|guir|_ l'a- ni- ma|mi-|a,|
 z2 G2 CC D/C/D/E/ | F/E/F/G/ C/D/E/F/ G/A/B/c/ c>c | c6 c2 | z B d6 | ^F2 F4 F2 | ^GG G4 GG | A8 | %19
w: o- di- i cal- * * *|* * * * * * * * * * * * di so-|spi- ri|a te|gl'in vi- a|la pie- ta- t'e'l de-|si-|
 A8 | z2 c2 B2 A2 | G3 G F4 | z2 d2 c2 B2 | A3 A G4 | z A d4 G2 | ^F4 F4 | G4 DDDE | ^F8 | G4 A4 | %29
w: re,|se ti po-|tes- si dar,|se ti po-|tes- si dar|mo- ren- d'a-|i- ta,|mor rei per dar ti|vi-|ta, ma|
 BB B2 =B4 | z ccc c3 c | ^c4 c4 | z _edc BGBc | d6 B2 | c8 | B8 | z f_ed cccd | _e6 e2 | d8 | c8 | %40
w: vi- vi'o- hi me|ch'in- giu- sta- men- te|mo- re,|ch'i vi- vo tien nel- l'al- trui|pet- to'il|co-|re,|ch'i vi- vo tien nel- l'al- trui|pet- to'il|co-|re,|
 z dcB AFAB | c6 A2 | G8 | F8 |] %44
w: ch'i vi- vo tien nel- l'al- trui|pet- to'il|co-|re.|
V:2
 F,8 | F,,8 |"^-natural""^b" A,,4 C,4- |"^-natural" C,4 C,4- | C,8 | G,4 D,4- | D,8 |"^b" G,,8 | %8
 G,,8 |"^-natural" G,,8- | G,,8 | C,8 | C,8- | C,8 | F,,8 | G,,4 D,4 |"^#" D,,8 |"^#" E,8 | %18
 ^F,2 ^C,2 E,4 | A,,8 | F,,4 G,,2 A,,2 | B,,2 C,2 F,,4 | G,,4 A,,2 B,,2 | C,2 D,2 G,,4 | %24
 ^F,,4 _E,4 | D,4 D,,4 | =B,,8 | D,8 | G,,4 F,,4 |"^-natural" B,,2 A,,2 G,,4 | C,6 =B,,2 | %31
"^#" A,,8 |"^b" C,4 G,,4- | G,,4 D,_E, G,2 | F,8 | B,,8 | D,4 F,,4 |"^b" C,8 | G,,8 | C,8 | %40
 B,,4 F,,4 | A,,4 C,4- | C,8 | F,,8 |] %44

